!!!Genre:	Volekh
!!!Mode:	Minor
!!!Edition:	2015
!!!Listening/dance:	dance
!!!Free rhythm?:	No
!!!Secondary Modes:	21-45; 46-61
!!!:	*g:dor; *G:
!!!One_Mode:	no
**kern
*I"P1
*clefG2
*k[b-e-]
*g:
*M3/4
*>A
=1
2.g
=2
2.gg
=3
4gg
4ff
4ee-
=4
4dd
4cc
4b-
=5
4ff
4ee-
4dd
=6
2cc
(8b-L
8aJ)
=7
4b-
4cc
8ddL
8b-J
=8
4cc
4b-
(8aL
8ddJ)
=9
2.g
=10
2.gg
=11:|!
[2.g
=12
4g]
4r
*>B
4d
=13!|:
2g
4a
=14
2b-
4dd
=15
2a
4dd
=16
2g
4d
=17
2g
4a
=18
2b-
4cc
=19
2.dd
=20
2.dd
*>bM
*g:dor
=21
4ff
4een
4dd
=22
4cc#X
4a
8cc#L
8eenJ
=23
2.dd
=24
2.dd
=25
4dd
4cc#X
4b-
=26
4a
4g
8b-L
8aJ
=27
4.g
8dL
8b-
8aJ
=28
2g
4d
=29:|!
2.g
=30!|:
*>C
(8aL
8b-)
(8cc#X
8dd)
(8cc#
8ddJ)
=31
2cc#X
8b-L
8aJ
=32
4.g
8dL
8b-
8aJ
=33
2.g
=34
(8aL
8b-)
(8cc#X
8dd)
(8cc#
8ddJ)
=35
2cc#X
8b-L
8aJ
=36
4.g
8dL
8b-
8aJ
=37
2.g
=38
4b-
4a
4g
=39
4a
4b-
4cc#X
=40
2.dd
=41
2.g
=42
4b-
4a
4g
=43
4.f#X
8dL
8dd
8f#J
=44
4.g
8dL
8b-
8aJ
=45
2.g
*>eM
*>bM
*G:
=46:|!|:
*>D
*k[f#]
4b
4b
4b
=47
4b
4a
4g
=48
2.cc
=49
2.cc
=50
4dd
4b
4a
=51
4g
4a
8gL
8aJ
=52
2.b
=53
2.g
=54
4b
4b
4b
=55
4b
4a
4g
=56
2.cc
=57
2.cc
=58
4dd
4g
8bL
8aJ
=59
4cc
4b
8aL
8ddJ
=60
4.g
8dL
8B
8dJ
=61
2.g
=:|!
*>eM
*-
